outline/svg/folder-remove-outline.svg

<svg xmlns="http://www.w3.org/2000/svg" viewBox="0 0 24 24"><g data-name="Layer 2"><g data-name="folder-remove"><rect width="24" height="24" opacity="0"/><path d="M14 13h-4a1 1 0 0 0 0 2h4a1 1 0 0 0 0-2z"/><path d="M19.5 7.05h-7L9.87 3.87a1 1 0 0 0-.77-.37H4.5A2.47 2.47 0 0 0 2 5.93v12.14a2.47 2.47 0 0 0 2.5 2.43h15a2.47 2.47 0 0 0 2.5-2.43V9.48a2.47 2.47 0 0 0-2.5-2.43zm.5 11a.46.46 0 0 1-.5.43h-15a.46.46 0 0 1-.5-.43V5.93a.46.46 0 0 1 .5-.43h4.13l2.6 3.18a1 1 0 0 0 .77.37h7.5a.46.46 0 0 1 .5.43z"/></g></g></svg>

<svg xmlns="http://www.w3.org/2000/svg" viewBox="0 0 24 24"><defs><style>.cls-1{fill:#fff;opacity:0;}.cls-2{fill:#231f20;}</style></defs><title>folder-remove</title><g id="Layer_2" data-name="Layer 2"><g id="folder-remove"><g id="folder-remove-2" data-name="folder-remove"><rect class="cls-1" width="24" height="24"/><path class="cls-2" d="M14,13H10a1,1,0,0,0,0,2h4a1,1,0,0,0,0-2Z"/><path class="cls-2" d="M19.5,7.05h-7L9.87,3.87A1,1,0,0,0,9.1,3.5H4.5A2.47,2.47,0,0,0,2,5.93V18.07A2.47,2.47,0,0,0,4.5,20.5h15A2.47,2.47,0,0,0,22,18.07V9.48A2.47,2.47,0,0,0,19.5,7.05Zm.5,11a.46.46,0,0,1-.5.43H4.5a.46.46,0,0,1-.5-.43V5.93a.46.46,0,0,1,.5-.43H8.63l2.6,3.18a1,1,0,0,0,.77.37h7.5a.46.46,0,0,1,.5.43Z"/></g></g></g></svg>
